X: 01029
T: CRAIGIE'S REEL
C: Bob McQuillen Mar'76
B: Bob's Note Book 1 #29
R: reel
Z: 2019 John Chambers <jc:trillian.mit.edu>
M: C
L: 1/8
K: G
D2 \
| G2D2 B,2D2 | G6 FG | A2B2 c2B2 | AGFE D2EF | G2D2 B,2D2 | GABc d2e2 | d2cB A2F2 | G6 D2 |
| G2D2 B,2D2 | G6 FG | A2B2 c2B2 | AGFE D2de | d2cB c2cd | c2BA B2Bc | B2A2 G2F2 | G6 ||
|: FG \
| A2B2 c2B2 | AGFE D2FG | A2B2 c2B2 | A6 D2 | G2B2 A2c2 | B2d2 e2dc | B2AG A2F2 | G6 :|
%%begintext align
%% For Craig Hicks
%%endtext

%%sep 1 1 500

%%sep 1 1 500

